; generated by SuperSlicer 2.3.57 on 2022-09-27 at 10:44:05 UTC


;
;

;
;
; TODO: check the size of the extruder and the y-bar clearance. Optimize & test supports.

; external perimeters extrusion width = 0.43mm
; perimeters extrusion width = 0.47mm
; infill extrusion width = 0.44mm
; solid infill extrusion width = 0.47mm
; top infill extrusion width = 0.45mm
; support material extrusion width = 0.44mm
; first layer extrusion width = 0.56mm

; object:{"name":"back","id":"back.stl id:0 copy 0","object_center":[150.000000,150.000000,0.000000],"boundingbox_center":[150.000000,150.000000,4.250000],"boundingbox_size":[100.000000,80.000000,8.500000]}
; plater:{"center":[150.000000,150.000000,0.000000],"boundingbox_center":[150.000000,150.000000,4.250000],"boundingbox_size":[100.000000,80.000000,8.500000]}

;TYPE:Custom
; M190 S0
; M109 S0 ; uncomment to remove set&wait temp gcode added automatically after this start gcode
; M98 P"/macros/print_start"
print_start EXTRUDER=230 BED=80 CHAMBER=30
M107
G21 ; set units to millimeters
G90 ; use absolute coordinates
M83 ; use relative distances for extrusion
M104 S230 ; set temperature
M109 S230 ; set temperature and wait for it to be reached
M190 S80 ; set bed temperature and wait for it to be reached
;LAYER_CHANGE
;Z:0.2
;HEIGHT:0.2
;BEFORE_LAYER_CHANGE
;0.2


G1 Z0.2 F9000
;AFTER_LAYER_CHANGE
;0.2
G1 E-1 F2100
G1 Z0.6 F9000
M204 S1500
G1 X97.4 Y106.892
G1 Z0.2
G1 E1 F1500
;TYPE:Skirt
;WIDTH:0.52
G1 F1800
G1 X96.775 Y107.545 E0.03585
G1 X96.305 Y108.317 E0.03585
G1 X96.01 Y109.177 E0.03605
G1 X95.907 Y110.075 E0.03585
G1 X95.908 Y189.95 E3.1686
G1 X95.978 Y190.664 E0.02846
G1 X96.17 Y191.361 E0.02866
G1 X96.479 Y192.014 E0.02866
G1 X96.892 Y192.6 E0.02846
G1 X97.549 Y193.228 E0.03605
G1 X98.322 Y193.697 E0.03585
G1 X99.182 Y193.991 E0.03605
G1 X100.08 Y194.093 E0.03585
G1 X199.94 Y194.093 E3.96139
G1 X200.659 Y194.023 E0.02866
G1 X201.356 Y193.832 E0.02866
G1 X202.009 Y193.524 E0.02866
G1 X202.6 Y193.108 E0.02866
G1 X203.218 Y192.463 E0.03545
G1 X203.686 Y191.701 E0.03545
G1 X203.981 Y190.863 E0.03525
G1 X204.092 Y189.976 E0.03545
G1 X204.091 Y109.969 E3.17382
G1 X203.988 Y109.167 E0.03206
G1 X203.735 Y108.405 E0.03186
G1 X203.341 Y107.705 E0.03186
G1 X202.822 Y107.093 E0.03186
G1 X202.19 Y106.588 E0.03206
G1 X201.479 Y106.216 E0.03186
G1 X200.709 Y105.986 E0.03186
G1 X199.905 Y105.907 E0.03206
G1 X100.06 Y105.907 E3.96078
G1 X99.341 Y105.977 E0.02866
G1 X98.644 Y106.168 E0.02866
G1 X97.991 Y106.476 E0.02866
G1 X97.449 Y106.858 E0.02628
G1 E-1 F2100
G1 Z0.6 F9000
G1 X97.585 Y107.052
M204 S1000
G1 X97.721 Y107.246
G1 Z0.2
G1 E1 F1500
G1 F1800
G1 X97.159 Y107.829 E0.03212
G1 X96.738 Y108.519 E0.03205
G1 X96.476 Y109.278 E0.03186
G1 X96.384 Y110.081 E0.03205
G1 X96.385 Y189.941 E3.16799
G1 X96.446 Y190.575 E0.02528
G1 X96.614 Y191.185 E0.02509
G1 X96.885 Y191.762 E0.02528
G1 X97.25 Y192.284 E0.02528
G1 X97.829 Y192.841 E0.03186
G1 X98.519 Y193.262 E0.03205
G1 X99.278 Y193.524 E0.03186
G1 X100.081 Y193.616 E0.03205
G1 X199.931 Y193.615 E3.961
G1 X200.566 Y193.555 E0.02528
G1 X201.185 Y193.386 E0.02547
G1 X201.762 Y193.115 E0.02528
G1 X202.284 Y192.75 E0.02528
G1 X202.838 Y192.175 E0.03168
G1 X203.254 Y191.499 E0.03149
G1 X203.517 Y190.75 E0.03149
G1 X203.615 Y189.962 E0.03149
G1 X203.614 Y109.997 E3.17215
G1 X203.526 Y109.289 E0.02829
G1 X203.304 Y108.612 E0.02829
G1 X202.957 Y107.988 E0.02829
G1 X202.494 Y107.44 E0.02848
G1 X201.934 Y106.991 E0.02848
G1 X201.303 Y106.659 E0.02829
G1 X200.615 Y106.454 E0.02848
G1 X199.905 Y106.384 E0.02829
G1 X100.069 Y106.385 E3.96043
G1 X99.434 Y106.445 E0.02528
G1 X98.815 Y106.614 E0.02547
G1 X98.238 Y106.885 E0.02528
G1 X97.77 Y107.212 E0.02264
G1 E-1 F2100
M204 S1500
G1 Z0.6 F9000
G1 X97.9 Y107.411
M204 S1000
G1 X98.03 Y107.61
G1 Z0.2
G1 E1 F1500
G1 F1800
G1 X97.54 Y108.117 E0.02799
G1 X97.171 Y108.719 E0.02799
G1 X96.941 Y109.386 E0.02799
G1 X96.862 Y110.082 E0.02781
G1 X96.862 Y189.928 E3.16741
G1 X97.058 Y191.012 E0.0437
G1 X97.61 Y191.97 E0.04388
G1 X98.117 Y192.46 E0.02799
G1 X98.719 Y192.829 E0.02799
G1 X99.386 Y193.059 E0.02799
G1 X100.087 Y193.139 E0.02799
G1 X199.923 Y193.138 E3.96045
G1 X201.012 Y192.942 E0.04388
G1 X201.97 Y192.39 E0.04388
G1 X202.455 Y191.89 E0.02764
G1 X202.822 Y191.297 E0.02764
G1 X203.053 Y190.64 E0.02764
G1 X203.138 Y189.944 E0.02781
G1 X203.138 Y110.024 E3.17041
G1 X203.062 Y109.402 E0.02483
G1 X202.871 Y108.811 E0.02465
G1 X202.567 Y108.263 E0.02483
G1 X202.164 Y107.785 E0.02483
G1 X201.677 Y107.392 E0.02483
G1 X201.123 Y107.101 E0.02483
G1 X200.527 Y106.923 E0.02465
G1 X199.904 Y106.861 E0.02483
G1 X100.077 Y106.862 E3.96009
G1 X98.988 Y107.058 E0.04388
G1 X98.082 Y107.58 E0.0415
; INIT printing object back.stl id:0 copy 0
G1 E-1 F2100
M204 S1500
G1 Z0.6 F9000
; printing object back.stl id:0 copy 0
G1 X123.394 Y131.628
M204 S1000
G1 X148.707 Y155.677
G1 Z0.2
G1 E1 F1500
;TYPE:Internal perimeter
;WIDTH:0.56
G1 F1800
G1 X148.211 Y156.281 E0.03359
G1 X147.846 Y156.966 E0.03337
G1 X147.62 Y157.709 E0.0334
G1 X147.543 Y158.485 E0.03353
G1 X147.62 Y159.261 E0.03353
G1 X147.846 Y160.005 E0.03341
G1 X148.212 Y160.69 E0.03341
G1 X148.707 Y161.293 E0.03353
G1 X149.31 Y161.788 E0.03353
G1 X149.995 Y162.154 E0.03341
G1 X150.739 Y162.38 E0.03341
G1 X151.515 Y162.457 E0.03353
G1 X152.291 Y162.38 E0.03353
G1 X153.034 Y162.154 E0.0334
G1 X153.719 Y161.789 E0.03337
G1 X154.323 Y161.293 E0.03359
G1 X154.818 Y160.689 E0.03359
G1 X155.183 Y160.005 E0.03337
G1 X155.409 Y159.261 E0.0334
G1 X155.486 Y158.485 E0.03353
G1 X155.409 Y157.709 E0.03353
G1 X155.183 Y156.966 E0.03341
G1 X154.817 Y156.28 E0.03341
G1 X154.323 Y155.677 E0.03353
G1 X153.72 Y155.183 E0.03353
G1 X153.034 Y154.817 E0.03341
G1 X152.291 Y154.591 E0.03341
G1 X151.515 Y154.514 E0.03353
G1 X150.739 Y154.591 E0.03353
G1 X149.995 Y154.817 E0.0334
G1 X149.311 Y155.182 E0.03337
G1 X148.753 Y155.639 E0.03101
M204 S1500
G1 X148.917 Y155.839 F9000
M204 S1000
G1 X149.081 Y156.039
G1 F1800
G1 X148.644 Y156.57 E0.02956
G1 X148.326 Y157.165 E0.029
G1 X148.13 Y157.811 E0.02904
G1 X148.063 Y158.485 E0.02914
G1 X148.13 Y159.16 E0.02914
G1 X148.326 Y159.806 E0.02904
G1 X148.644 Y160.402 E0.02904
G1 X149.074 Y160.926 E0.02914
G1 X149.598 Y161.356 E0.02914
G1 X150.194 Y161.674 E0.02904
G1 X150.84 Y161.87 E0.02904
G1 X151.515 Y161.937 E0.02914
G1 X152.189 Y161.87 E0.02914
G1 X152.835 Y161.674 E0.02904
G1 X153.43 Y161.356 E0.029
G1 X153.955 Y160.926 E0.02919
G1 X154.386 Y160.401 E0.02919
G1 X154.703 Y159.806 E0.029
G1 X154.9 Y159.16 E0.02904
G1 X154.966 Y158.485 E0.02914
G1 X154.9 Y157.811 E0.02914
G1 X154.703 Y157.165 E0.02904
G1 X154.385 Y156.569 E0.02904
G1 X153.955 Y156.045 E0.02914
G1 X153.431 Y155.615 E0.02914
G1 X152.835 Y155.297 E0.02904
G1 X152.189 Y155.1 E0.02904
G1 X151.515 Y155.034 E0.02914
G1 X150.84 Y155.1 E0.02914
G1 X150.194 Y155.297 E0.02904
G1 X149.599 Y155.614 E0.029
G1 X149.127 Y156.001 E0.02623
M204 S1500
G1 X149.291 Y156.201 F9000
M204 S1000
G1 X149.455 Y156.401
;TYPE:External perimeter
G1 F1800
G1 X149.441 Y156.412 E0.00076
G1 X149.076 Y156.858 E0.0248
G1 X148.806 Y157.363 E0.02463
G1 X148.639 Y157.912 E0.02467
G1 X148.583 Y158.485 E0.02475
G1 X148.639 Y159.058 E0.02475
G1 X148.806 Y159.607 E0.02467
G1 X149.076 Y160.113 E0.02467
G1 X149.441 Y160.559 E0.02475
G1 X149.887 Y160.924 E0.02475
G1 X150.393 Y161.194 E0.02467
G1 X150.942 Y161.361 E0.02467
G1 X151.515 Y161.417 E0.02475
G1 X152.088 Y161.361 E0.02475
G1 X152.637 Y161.194 E0.02467
G1 X153.142 Y160.924 E0.02463
G1 X153.588 Y160.559 E0.0248
G1 X153.954 Y160.113 E0.0248
G1 X154.223 Y159.607 E0.02463
G1 X154.39 Y159.058 E0.02467
G1 X154.447 Y158.485 E0.02475
G1 X154.39 Y157.912 E0.02475
G1 X154.223 Y157.363 E0.02467
G1 X153.953 Y156.857 E0.02467
G1 X153.588 Y156.412 E0.02475
G1 X153.143 Y156.047 E0.02475
G1 X152.637 Y155.777 E0.02467
G1 X152.088 Y155.61 E0.02467
G1 X151.515 Y155.553 E0.02475
G1 X150.942 Y155.61 E0.02475
G1 X150.393 Y155.777 E0.02467
G1 X149.887 Y156.046 E0.02463
G1 X149.501 Y156.363 E0.02146
;WIPE_START
M204 S1500
G1 X149.439 Y156.395 F9000
;WIPE_END
G1 X147.779 Y157.204
M204 S1000
G1 X146.119 Y158.014
;TYPE:Internal perimeter
G1 F1800
G1 X145.664 Y157.381 E0.03353
G1 X145.097 Y156.85 E0.03341
G1 X144.437 Y156.439 E0.03341
G1 X143.707 Y156.164 E0.03353
G1 X142.938 Y156.037 E0.03353
G1 X142.161 Y156.063 E0.0334
G1 X141.406 Y156.239 E0.03337
G1 X140.694 Y156.561 E0.03359
G1 X140.059 Y157.016 E0.03359
G1 X139.529 Y157.583 E0.03337
G1 X139.119 Y158.242 E0.0334
G1 X138.844 Y158.972 E0.03353
G1 X138.717 Y159.742 E0.03353
G1 X138.743 Y160.518 E0.03341
G1 X138.919 Y161.275 E0.03341
G1 X139.24 Y161.986 E0.03353
G1 X139.695 Y162.619 E0.03353
G1 X140.262 Y163.15 E0.03341
G1 X140.922 Y163.561 E0.03341
G1 X141.652 Y163.836 E0.03353
G1 X142.421 Y163.963 E0.03353
G1 X143.198 Y163.937 E0.0334
G1 X143.953 Y163.761 E0.03337
G1 X144.665 Y163.439 E0.03359
G1 X145.3 Y162.984 E0.03359
G1 X145.83 Y162.417 E0.03337
G1 X146.24 Y161.758 E0.0334
G1 X146.515 Y161.028 E0.03353
G1 X146.642 Y160.258 E0.03353
G1 X146.616 Y159.482 E0.03341
G1 X146.44 Y158.725 E0.03341
G1 X146.143 Y158.069 E0.03095
M204 S1500
G1 X145.908 Y158.176 F9000
M204 S1000
G1 X145.672 Y158.282
G1 F1800
G1 X145.274 Y157.723 E0.02951
G1 X144.781 Y157.262 E0.02904
G1 X144.207 Y156.905 E0.02904
G1 X143.573 Y156.666 E0.02914
G1 X142.904 Y156.556 E0.02914
G1 X142.229 Y156.578 E0.02904
G1 X141.572 Y156.731 E0.029
G1 X140.954 Y157.011 E0.02919
G1 X140.402 Y157.407 E0.02919
G1 X139.941 Y157.899 E0.029
G1 X139.584 Y158.472 E0.02904
G1 X139.345 Y159.107 E0.02914
G1 X139.235 Y159.775 E0.02914
G1 X139.258 Y160.45 E0.02904
G1 X139.411 Y161.108 E0.02904
G1 X139.69 Y161.726 E0.02914
G1 X140.085 Y162.277 E0.02914
G1 X140.578 Y162.738 E0.02904
G1 X141.152 Y163.095 E0.02904
G1 X141.786 Y163.334 E0.02914
G1 X142.455 Y163.444 E0.02914
G1 X143.13 Y163.422 E0.02904
G1 X143.787 Y163.269 E0.029
G1 X144.405 Y162.989 E0.02919
G1 X144.957 Y162.593 E0.02919
G1 X145.418 Y162.101 E0.029
G1 X145.775 Y161.528 E0.02904
G1 X146.014 Y160.893 E0.02914
G1 X146.124 Y160.225 E0.02914
G1 X146.101 Y159.55 E0.02904
G1 X145.948 Y158.892 E0.02904
G1 X145.697 Y158.337 E0.02618
M204 S1500
G1 X145.462 Y158.443 F9000
M204 S1000
G1 X145.226 Y158.55
;TYPE:External perimeter
G1 F1800
G1 X145.219 Y158.534 E0.00076
G1 X144.883 Y158.066 E0.02475
G1 X144.464 Y157.674 E0.02467
G1 X143.977 Y157.371 E0.02467
G1 X143.438 Y157.168 E0.02475
G1 X142.87 Y157.074 E0.02475
G1 X142.297 Y157.093 E0.02467
G1 X141.739 Y157.223 E0.02463
G1 X141.213 Y157.461 E0.0248
G1 X140.745 Y157.797 E0.0248
G1 X140.354 Y158.215 E0.02463
G1 X140.05 Y158.702 E0.02467
G1 X139.847 Y159.241 E0.02475
G1 X139.754 Y159.809 E0.02475
G1 X139.773 Y160.383 E0.02467
G1 X139.903 Y160.942 E0.02467
G1 X140.14 Y161.466 E0.02475
G1 X140.476 Y161.934 E0.02475
G1 X140.895 Y162.326 E0.02467
G1 X141.382 Y162.629 E0.02467
G1 X141.921 Y162.832 E0.02475
G1 X142.489 Y162.926 E0.02475
G1 X143.062 Y162.907 E0.02467
G1 X143.62 Y162.777 E0.02463
G1 X144.146 Y162.539 E0.0248
G1 X144.614 Y162.203 E0.0248
G1 X145.005 Y161.785 E0.02463
G1 X145.309 Y161.298 E0.02467
G1 X145.512 Y160.759 E0.02475
G1 X145.605 Y160.191 E0.02475
G1 X145.586 Y159.617 E0.02467
G1 X145.456 Y159.058 E0.02467
G1 X145.251 Y158.605 E0.02141
;WIPE_START
M204 S1500
G1 X145.236 Y158.536 F9000
;WIPE_END
G1 X146.739 Y161.148
M204 S1000
G1 X148.242 Y163.76
;TYPE:Internal perimeter
G1 F1800
G1 X147.583 Y164.17 E0.0334
G1 X147.016 Y164.7 E0.03337
G1 X146.561 Y165.335 E0.03359
G1 X146.239 Y166.047 E0.03359
G1 X146.063 Y166.802 E0.03337
G1 X146.037 Y167.579 E0.0334
G1 X146.164 Y168.348 E0.03353
G1 X146.439 Y169.078 E0.03353
G1 X146.85 Y169.738 E0.03341
G1 X147.381 Y170.305 E0.03341
G1 X148.014 Y170.76 E0.03353
G1 X148.725 Y171.081 E0.03353
G1 X149.482 Y171.257 E0.03341
G1 X150.258 Y171.283 E0.03341
G1 X151.028 Y171.156 E0.03353
G1 X151.758 Y170.881 E0.03353
G1 X152.417 Y170.471 E0.0334
G1 X152.984 Y169.941 E0.03337
G1 X153.439 Y169.306 E0.03359
G1 X153.761 Y168.594 E0.03359
G1 X153.937 Y167.839 E0.03337
G1 X153.963 Y167.062 E0.0334
G1 X153.836 Y166.293 E0.03353
G1 X153.561 Y165.563 E0.03353
G1 X153.15 Y164.903 E0.03341
G1 X152.619 Y164.336 E0.03341
G1 X151.986 Y163.881 E0.03353
G1 X151.275 Y163.56 E0.03353
G1 X150.518 Y163.384 E0.03341
G1 X149.742 Y163.358 E0.03341
G1 X148.972 Y163.485 E0.03353
G1 X148.299 Y163.738 E0.03095
M204 S1500
G1 X148.39 Y163.98 F9000
M204 S1000
G1 X148.481 Y164.222
G1 F1800
G1 X147.899 Y164.582 E0.02942
G1 X147.407 Y165.043 E0.029
G1 X147.011 Y165.595 E0.02919
G1 X146.731 Y166.213 E0.02919
G1 X146.578 Y166.87 E0.029
G1 X146.556 Y167.545 E0.02904
G1 X146.666 Y168.214 E0.02914
G1 X146.905 Y168.848 E0.02914
G1 X147.262 Y169.422 E0.02904
G1 X147.723 Y169.915 E0.02904
G1 X148.274 Y170.31 E0.02914
G1 X148.892 Y170.589 E0.02914
G1 X149.55 Y170.742 E0.02904
G1 X150.225 Y170.765 E0.02904
G1 X150.893 Y170.655 E0.02914
G1 X151.528 Y170.416 E0.02914
G1 X152.101 Y170.059 E0.02904
G1 X152.593 Y169.598 E0.029
G1 X152.989 Y169.046 E0.02919
G1 X153.269 Y168.428 E0.02919
G1 X153.422 Y167.771 E0.029
G1 X153.444 Y167.096 E0.02904
G1 X153.334 Y166.427 E0.02914
G1 X153.095 Y165.793 E0.02914
G1 X152.738 Y165.219 E0.02904
G1 X152.277 Y164.726 E0.02904
G1 X151.726 Y164.331 E0.02914
G1 X151.108 Y164.052 E0.02914
G1 X150.45 Y163.899 E0.02904
G1 X149.775 Y163.876 E0.02904
G1 X149.107 Y163.986 E0.02914
G1 X148.537 Y164.201 E0.02617
M204 S1500
G1 X148.628 Y164.443 F9000
M204 S1000
G1 X148.719 Y164.685
;TYPE:External perimeter
G1 F1800
G1 X148.702 Y164.691 E0.00078
G1 X148.215 Y164.995 E0.02467
G1 X147.797 Y165.386 E0.02463
G1 X147.461 Y165.854 E0.0248
G1 X147.223 Y166.38 E0.0248
G1 X147.093 Y166.938 E0.02463
G1 X147.074 Y167.511 E0.02467
G1 X147.168 Y168.079 E0.02475
G1 X147.371 Y168.618 E0.02475
G1 X147.674 Y169.105 E0.02467
G1 X148.066 Y169.524 E0.02467
G1 X148.534 Y169.86 E0.02475
G1 X149.058 Y170.097 E0.02475
G1 X149.617 Y170.227 E0.02467
G1 X150.191 Y170.246 E0.02467
G1 X150.759 Y170.153 E0.02475
G1 X151.298 Y169.95 E0.02475
G1 X151.785 Y169.646 E0.02467
G1 X152.203 Y169.255 E0.02463
G1 X152.539 Y168.787 E0.0248
G1 X152.777 Y168.261 E0.0248
G1 X152.907 Y167.703 E0.02463
G1 X152.926 Y167.13 E0.02467
G1 X152.832 Y166.562 E0.02475
G1 X152.629 Y166.023 E0.02475
G1 X152.326 Y165.536 E0.02467
G1 X151.934 Y165.117 E0.02467
G1 X151.466 Y164.781 E0.02475
G1 X150.942 Y164.544 E0.02475
G1 X150.383 Y164.414 E0.02467
G1 X149.809 Y164.395 E0.02467
G1 X149.241 Y164.488 E0.02475
G1 X148.776 Y164.664 E0.02139
;WIPE_START
M204 S1500
G1 X148.705 Y164.673 F9000
;WIPE_END
G1 E-1 F2100
G1 Z0.6 F9000
G1 X153.839 Y165.246
M204 S1000
G1 X158.972 Y165.818
G1 Z0.2
G1 E1 F1500
;TYPE:Internal perimeter
G1 F1800
G1 X158.972 Y166.182 E0.01566
G1 X158.48 Y166.331 E0.02208
G1 X157.795 Y166.697 E0.03341
G1 X157.192 Y167.192 E0.03353
G1 X156.697 Y167.795 E0.03353
G1 X156.331 Y168.48 E0.0334
G1 X156.106 Y169.223 E0.03337
G1 X156.029 Y170 E0.03359
G1 X156.106 Y170.777 E0.03359
G1 X156.331 Y171.52 E0.03337
G1 X156.697 Y172.205 E0.0334
G1 X157.192 Y172.808 E0.03353
G1 X157.795 Y173.303 E0.03353
G1 X158.48 Y173.669 E0.03341
G1 X159.224 Y173.895 E0.03341
G1 X160 Y173.971 E0.03353
G1 X160.776 Y173.895 E0.03353
G1 X161.52 Y173.669 E0.03341
G1 X162.205 Y173.303 E0.03341
G1 X162.808 Y172.808 E0.03353
G1 X163.303 Y172.205 E0.03353
G1 X163.669 Y171.52 E0.0334
G1 X163.894 Y170.777 E0.03337
G1 X163.971 Y170 E0.03359
G1 X163.894 Y169.223 E0.03359
G1 X163.669 Y168.48 E0.03337
G1 X163.303 Y167.795 E0.0334
G1 X162.808 Y167.192 E0.03353
G1 X162.205 Y166.697 E0.03353
G1 X161.52 Y166.331 E0.03341
G1 X161.028 Y166.182 E0.02208
G1 X161.028 Y165.818 E0.01566
G1 X161.52 Y165.669 E0.02208
G1 X162.205 Y165.303 E0.03341
G1 X162.808 Y164.808 E0.03353
G1 X163.303 Y164.205 E0.03353
G1 X163.669 Y163.52 E0.0334
G1 X163.894 Y162.777 E0.03337
G1 X163.971 Y162 E0.03359
G1 X163.894 Y161.223 E0.03359
G1 X163.669 Y160.48 E0.03337
G1 X163.303 Y159.795 E0.0334
G1 X162.808 Y159.192 E0.03353
G1 X162.205 Y158.697 E0.03353
G1 X161.52 Y158.331 E0.03341
G1 X160.776 Y158.105 E0.03341
G1 X160 Y158.029 E0.03353
G1 X159.224 Y158.105 E0.03353
