; generated by SuperSlicer 2.3.57 on 2022-10-24 at 07:33:20 UTC


;
;

;
;
; TODO: check the size of the extruder and the y-bar clearance. Optimize & test supports.

; external perimeters extrusion width = 0.43mm
; perimeters extrusion width = 0.47mm
; infill extrusion width = 0.44mm
; solid infill extrusion width = 0.47mm
; top infill extrusion width = 0.45mm
; support material extrusion width = 0.44mm
; first layer extrusion width = 0.56mm

; object:{"name":"bracket2","id":"bracket2.stl id:0 copy 0","object_center":[150.000000,150.000000,0.000000],"boundingbox_center":[150.000000,150.000000,8.000000],"boundingbox_size":[30.000000,20.000000,16.000000]}
; plater:{"center":[150.000000,150.000000,0.000000],"boundingbox_center":[150.000000,150.000000,8.000000],"boundingbox_size":[30.000000,20.000000,16.000000]}

;TYPE:Custom
; M190 S0
; M109 S0 ; uncomment to remove set&wait temp gcode added automatically after this start gcode
; M98 P"/macros/print_start"
print_start EXTRUDER=230 BED=80 CHAMBER=30
M107
G21 ; set units to millimeters
G90 ; use absolute coordinates
M83 ; use relative distances for extrusion
M104 S230 ; set temperature
M109 S230 ; set temperature and wait for it to be reached
M190 S80 ; set bed temperature and wait for it to be reached
;LAYER_CHANGE
;Z:0.2
;HEIGHT:0.2
;BEFORE_LAYER_CHANGE
;0.2


G1 Z0.2 F9000
;AFTER_LAYER_CHANGE
;0.2
G1 E-1 F2100
G1 Z0.6 F9000
M204 S1500
G1 X131.799 Y136.151
G1 Z0.2
G1 E1 F1500
;TYPE:Skirt
;WIDTH:0.52
G1 F1800
G1 X131.037 Y136.94 E0.0435
G1 X130.463 Y137.868 E0.04327
G1 X130.096 Y138.895 E0.04327
G1 X129.955 Y139.977 E0.04327
G1 X129.96 Y160.166 E0.80089
G1 X130.069 Y160.987 E0.03287
G1 X130.309 Y161.78 E0.03287
G1 X130.673 Y162.525 E0.03287
G1 X131.151 Y163.201 E0.03287
G1 X131.94 Y163.963 E0.0435
G1 X132.878 Y164.542 E0.04372
G1 X133.917 Y164.909 E0.04372
G1 X135.01 Y165.046 E0.04372
G1 X165.087 Y165.043 E1.19314
G1 X165.932 Y164.942 E0.03376
G1 X166.744 Y164.705 E0.03354
G1 X167.51 Y164.336 E0.03376
G1 X168.201 Y163.849 E0.03354
G1 X168.918 Y163.117 E0.04062
G1 X169.478 Y162.253 E0.04084
G1 X169.854 Y161.295 E0.04084
G1 X170.033 Y160.281 E0.04084
G1 X170.014 Y139.516 E0.82373
G1 X169.824 Y138.601 E0.03708
G1 X169.471 Y137.735 E0.03708
G1 X168.965 Y136.943 E0.0373
G1 X168.327 Y136.26 E0.03708
G1 X167.576 Y135.703 E0.03708
G1 X166.736 Y135.292 E0.03708
G1 X165.836 Y135.039 E0.03708
G1 X164.906 Y134.953 E0.03708
G1 X134.913 Y134.957 E1.1898
G1 X134.068 Y135.058 E0.03376
G1 X133.256 Y135.295 E0.03354
G1 X132.49 Y135.664 E0.03376
G1 X131.848 Y136.117 E0.03116
G1 E-1 F2100
G1 Z0.6 F9000
G1 X131.993 Y136.303
M204 S1000
G1 X132.138 Y136.49
G1 Z0.2
G1 E1 F1500
G1 F1800
G1 X131.436 Y137.205 E0.03974
G1 X130.903 Y138.053 E0.03974
G1 X130.564 Y138.99 E0.03953
G1 X130.432 Y139.983 E0.03974
G1 X130.435 Y160.113 E0.79857
G1 X130.529 Y160.854 E0.02962
G1 X130.741 Y161.575 E0.02983
G1 X131.064 Y162.249 E0.02962
G1 X131.49 Y162.862 E0.02962
G1 X132.209 Y163.567 E0.03995
G1 X133.062 Y164.102 E0.03995
G1 X134.016 Y164.442 E0.04016
G1 X135.015 Y164.569 E0.03995
G1 X165.049 Y164.567 E1.19146
G1 X165.807 Y164.481 E0.03025
G1 X166.54 Y164.272 E0.03025
G1 X167.235 Y163.944 E0.03046
G1 X167.862 Y163.51 E0.03025
G1 X168.53 Y162.837 E0.03763
G1 X169.049 Y162.043 E0.03763
G1 X169.397 Y161.16 E0.03763
G1 X169.558 Y160.225 E0.03763
G1 X169.544 Y139.61 E0.8178
G1 X169.377 Y138.773 E0.03384
G1 X169.059 Y137.976 E0.03405
G1 X168.603 Y137.255 E0.03384
G1 X168.024 Y136.629 E0.03384
G1 X167.34 Y136.119 E0.03384
G1 X166.576 Y135.741 E0.03384
G1 X165.755 Y135.509 E0.03384
G1 X164.905 Y135.43 E0.03384
G1 X134.951 Y135.433 E1.18828
G1 X134.193 Y135.519 E0.03025
G1 X133.46 Y135.728 E0.03025
G1 X132.765 Y136.056 E0.03046
G1 X132.187 Y136.456 E0.02787
G1 E-1 F2100
M204 S1500
G1 Z0.6 F9000
G1 X132.329 Y136.645
M204 S1000
G1 X132.47 Y136.834
G1 Z0.2
G1 E1 F1500
G1 F1800
G1 X131.828 Y137.478 E0.03605
G1 X131.34 Y138.244 E0.03605
G1 X131.03 Y139.093 E0.03585
G1 X130.909 Y139.994 E0.03605
G1 X130.911 Y160.071 E0.79647
G1 X130.991 Y160.734 E0.02646
G1 X131.175 Y161.375 E0.02646
G1 X131.459 Y161.978 E0.02646
G1 X131.834 Y162.53 E0.02646
G1 X132.486 Y163.178 E0.03645
G1 X133.258 Y163.666 E0.03625
G1 X134.118 Y163.976 E0.03625
G1 X135.024 Y164.092 E0.03625
G1 X165.021 Y164.091 E1.18995
G1 X165.694 Y164.017 E0.02686
G1 X166.351 Y163.834 E0.02706
G1 X166.965 Y163.549 E0.02686
G1 X167.53 Y163.166 E0.02706
G1 X168.143 Y162.558 E0.03425
G1 X168.621 Y161.832 E0.03445
G1 X168.938 Y161.029 E0.03425
G1 X169.083 Y160.178 E0.03425
G1 X169.073 Y139.696 E0.81249
G1 X168.93 Y138.942 E0.03046
G1 X168.649 Y138.222 E0.03066
G1 X168.243 Y137.57 E0.03046
G1 X167.722 Y136.999 E0.03066
G1 X167.105 Y136.534 E0.03066
G1 X166.413 Y136.19 E0.03066
G1 X165.67 Y135.979 E0.03066
G1 X164.905 Y135.907 E0.03046
G1 X134.979 Y135.909 E1.18714
G1 X134.306 Y135.983 E0.02686
G1 X133.649 Y136.166 E0.02706
G1 X133.035 Y136.451 E0.02686
G1 X132.52 Y136.801 E0.02468
G1 E-1 F2100
M204 S1500
G1 Z0.6 F9000
G1 X132.66 Y136.991
M204 S1000
G1 X132.801 Y137.181
G1 Z0.2
G1 E1 F1500
G1 F1800
G1 X132.221 Y137.751 E0.03224
G1 X131.777 Y138.437 E0.03243
G1 X131.494 Y139.204 E0.03243
G1 X131.385 Y140.01 E0.03224
G1 X131.387 Y160.031 E0.79425
G1 X131.61 Y161.176 E0.04628
G1 X132.181 Y162.199 E0.04647
G1 X132.758 Y162.785 E0.03261
G1 X133.446 Y163.227 E0.03243
G1 X134.218 Y163.509 E0.03261
G1 X135.033 Y163.615 E0.03261
G1 X164.993 Y163.614 E1.18849
G1 X166.158 Y163.396 E0.04703
G1 X167.199 Y162.819 E0.04721
G1 X167.758 Y162.275 E0.03092
G1 X168.19 Y161.626 E0.03092
G1 X168.479 Y160.897 E0.03111
G1 X168.609 Y160.128 E0.03092
G1 X168.602 Y139.779 E0.80727
G1 X168.479 Y139.1 E0.02735
G1 X168.232 Y138.456 E0.02735
G1 X167.871 Y137.869 E0.02735
G1 X167.411 Y137.361 E0.02716
G1 X166.866 Y136.947 E0.02716
G1 X166.249 Y136.638 E0.02735
G1 X165.587 Y136.448 E0.02735
G1 X164.905 Y136.384 E0.02716
G1 X135.007 Y136.386 E1.18604
G1 X133.842 Y136.604 E0.04703
G1 X132.853 Y137.152 E0.04483
G1 E-1 F2100
M204 S1500
G1 Z0.6 F9000
G1 X132.987 Y137.345
M204 S1000
G1 X133.12 Y137.537
G1 Z0.2
G1 E1 F1500
G1 F1800
G1 X132.603 Y138.037 E0.02851
G1 X132.21 Y138.639 E0.02851
G1 X131.959 Y139.312 E0.02851
G1 X131.862 Y140.024 E0.02851
G1 X131.863 Y159.999 E0.79237
G1 X132.052 Y160.995 E0.04022
G1 X132.537 Y161.88 E0.04005
G1 X133.041 Y162.399 E0.02869
G1 X133.651 Y162.796 E0.02886
G1 X134.329 Y163.046 E0.02869
G1 X135.047 Y163.138 E0.02869
G1 X164.968 Y163.138 E1.18694
G1 X165.978 Y162.954 E0.04074
G1 X166.88 Y162.463 E0.04074
G1 X167.38 Y161.983 E0.02746
G1 X167.768 Y161.405 E0.02764
G1 X168.022 Y160.761 E0.02746
G1 X168.134 Y160.078 E0.02746
G1 X168.129 Y139.85 E0.80241
G1 X168.026 Y139.255 E0.02395
G1 X167.815 Y138.69 E0.02395
G1 X167.503 Y138.173 E0.02395
G1 X167.1 Y137.723 E0.02395
G1 X166.621 Y137.356 E0.02395
G1 X166.081 Y137.085 E0.02395
G1 X165.506 Y136.919 E0.02378
G1 X164.904 Y136.861 E0.02395
G1 X135.032 Y136.862 E1.185
G1 X134.022 Y137.046 E0.04074
G1 X133.173 Y137.509 E0.03836
; INIT printing object bracket2.stl id:0 copy 0
G1 E-1 F2100
M204 S1500
G1 Z0.6 F9000
; printing object bracket2.stl id:0 copy 0
G1 X134.793 Y139.461
M204 S1000
G1 X136.414 Y141.414
G1 Z0.2
G1 E1 F1500
;TYPE:Internal perimeter
;WIDTH:0.56
G1 F1800
G1 X163.586 Y141.414 E1.16826
G1 X163.586 Y158.586 E0.7383
G1 X136.414 Y158.586 E1.16826
G1 X136.414 Y141.474 E0.73572
M204 S1500
G1 X136.156 Y141.186 F9000
M204 S1000
G1 X135.897 Y140.897
G1 F1800
G1 X164.103 Y140.897 E1.21272
G1 X164.103 Y159.103 E0.78277
G1 X135.897 Y159.103 E1.21272
G1 X135.897 Y140.957 E0.78019
M204 S1500
G1 X135.639 Y140.669 F9000
M204 S1000
G1 X135.38 Y140.38
;TYPE:External perimeter
G1 F1800
G1 X164.62 Y140.38 E1.25718
G1 X164.62 Y159.62 E0.82723
G1 X135.38 Y159.62 E1.25718
G1 X135.38 Y140.44 E0.82465
;WIPE_START
M204 S1500
G1 X135.726 Y140.58 F9000
;WIPE_END
G1 X149.043 Y141.088
M204 S1000
G1 X162.36 Y141.595
;TYPE:Solid infill
;WIDTH:0.559854
G1 F1800
G1 X163.183 Y142.418 E0.05002
G1 X163.183 Y143.149 E0.03143
G1 X161.851 Y141.817 E0.08096
G1 X161.119 Y141.817 E0.03143
G1 X163.183 Y143.881 E0.12541
G1 X163.183 Y144.612 E0.03143
G1 X160.388 Y141.817 E0.16986
G1 X159.657 Y141.817 E0.03143
G1 X163.183 Y145.343 E0.21432
G1 X163.183 Y146.074 E0.03143
G1 X158.926 Y141.817 E0.25877
G1 X158.194 Y141.817 E0.03143
G1 X163.183 Y146.806 E0.30322
G1 X163.183 Y147.537 E0.03143
G1 X157.463 Y141.817 E0.34767
G1 X156.732 Y141.817 E0.03143
G1 X163.183 Y148.268 E0.39213
G1 X163.183 Y148.999 E0.03143
G1 X156.001 Y141.817 E0.43658
G1 X155.269 Y141.817 E0.03143
G1 X163.183 Y149.731 E0.48103
G1 X163.183 Y150.462 E0.03143
G1 X154.538 Y141.817 E0.52548
G1 X153.807 Y141.817 E0.03143
G1 X163.183 Y151.193 E0.56994
G1 X163.183 Y151.924 E0.03143
G1 X153.076 Y141.817 E0.61439
G1 X152.344 Y141.817 E0.03143
G1 X163.183 Y152.656 E0.65884
G1 X163.183 Y153.387 E0.03143
G1 X151.613 Y141.817 E0.70329
G1 X150.882 Y141.817 E0.03143
G1 X163.183 Y154.118 E0.74775
G1 X163.183 Y154.849 E0.03143
G1 X150.151 Y141.817 E0.7922
G1 X149.419 Y141.817 E0.03143
G1 X163.183 Y155.581 E0.83665
G1 X163.183 Y156.312 E0.03143
G1 X148.688 Y141.817 E0.8811
G1 X147.957 Y141.817 E0.03143
G1 X163.183 Y157.043 E0.92556
G1 X163.183 Y157.774 E0.03143
G1 X147.226 Y141.817 E0.97001
G1 X146.494 Y141.817 E0.03143
G1 X162.859 Y158.183 E0.99481
G1 X162.128 Y158.183 E0.03143
G1 X145.763 Y141.817 E0.99481
G1 X145.032 Y141.817 E0.03143
G1 X161.397 Y158.183 E0.99481
G1 X160.666 Y158.183 E0.03143
G1 X144.3 Y141.817 E0.99481
G1 X143.569 Y141.817 E0.03143
G1 X159.934 Y158.183 E0.99481
G1 X159.203 Y158.183 E0.03143
G1 X142.838 Y141.817 E0.99481
G1 X142.107 Y141.817 E0.03143
G1 X158.472 Y158.183 E0.99481
G1 X157.741 Y158.183 E0.03143
G1 X141.375 Y141.817 E0.99481
G1 X140.644 Y141.817 E0.03143
G1 X157.009 Y158.183 E0.99481
G1 X156.278 Y158.183 E0.03143
G1 X139.913 Y141.817 E0.99481
G1 X139.182 Y141.817 E0.03143
G1 X155.547 Y158.183 E0.99481
G1 X154.815 Y158.183 E0.03143
G1 X138.45 Y141.817 E0.99481
G1 X137.719 Y141.817 E0.03143
G1 X154.084 Y158.183 E0.99481
G1 X153.353 Y158.183 E0.03143
G1 X136.988 Y141.817 E0.99481
G1 X136.817 Y141.817 E0.00732
G1 X136.817 Y142.378 E0.02411
G1 X152.622 Y158.183 E0.96072
G1 X151.89 Y158.183 E0.03143
G1 X136.817 Y143.11 E0.91627
G1 X136.817 Y143.841 E0.03143
G1 X151.159 Y158.183 E0.87182
G1 X150.428 Y158.183 E0.03143
G1 X136.817 Y144.572 E0.82736
G1 X136.817 Y145.303 E0.03143
G1 X149.697 Y158.183 E0.78291
G1 X148.965 Y158.183 E0.03143
G1 X136.817 Y146.035 E0.73846
G1 X136.817 Y146.766 E0.03143
G1 X148.234 Y158.183 E0.69401
G1 X147.503 Y158.183 E0.03143
G1 X136.817 Y147.497 E0.64955
G1 X136.817 Y148.228 E0.03143
G1 X146.772 Y158.183 E0.6051
G1 X146.04 Y158.183 E0.03143
G1 X136.817 Y148.96 E0.56065
G1 X136.817 Y149.691 E0.03143
G1 X145.309 Y158.183 E0.5162
G1 X144.578 Y158.183 E0.03143
G1 X136.817 Y150.422 E0.47174
G1 X136.817 Y151.153 E0.03143
G1 X143.847 Y158.183 E0.42729
G1 X143.115 Y158.183 E0.03143
G1 X136.817 Y151.885 E0.38284
G1 X136.817 Y152.616 E0.03143
G1 X142.384 Y158.183 E0.33839
G1 X141.653 Y158.183 E0.03143
G1 X136.817 Y153.347 E0.29393
G1 X136.817 Y154.078 E0.03143
G1 X140.922 Y158.183 E0.24948
G1 X140.19 Y158.183 E0.03143
G1 X136.817 Y154.81 E0.20503
G1 X136.817 Y155.541 E0.03143
G1 X139.459 Y158.183 E0.16058
G1 X138.728 Y158.183 E0.03143
G1 X136.817 Y156.272 E0.11612
G1 X136.817 Y157.004 E0.03143
G1 X137.996 Y158.183 E0.07167
G1 X137.265 Y158.183 E0.03143
G1 X136.595 Y157.512 E0.04074
; INIT stop printing object bracket2.stl id:0 copy 0
;LAYER_CHANGE
;Z:0.45
;HEIGHT:0.25
;BEFORE_LAYER_CHANGE
;0.45


; stop printing object bracket2.stl id:0 copy 0
M204 S1500
G1 Z0.45 F9000
;AFTER_LAYER_CHANGE
;0.45
M104 S220 ; set temperature
; INIT printing object bracket2.stl id:0 copy 0
; printing object bracket2.stl id:0 copy 0
G1 X136.029 Y158.971
;TYPE:Internal perimeter
;WIDTH:0.472
G1 F4589.4637
G1 X136.029 Y141.029 E0.78019
G1 X163.971 Y141.029 E1.21501
G1 X163.971 Y158.971 E0.78019
G1 X136.089 Y158.971 E1.2124
G1 X135.61 Y159.39 F9000
G1 F4589.4637
G1 X135.61 Y140.61 E0.81657
G1 X164.39 Y140.61 E1.25139
G1 X164.39 Y159.39 E0.81657
G1 X135.67 Y159.39 E1.24878
G1 X135.214 Y159.786 F9000
;TYPE:External perimeter
;WIDTH:0.428
G1 F2400
G1 X135.214 Y140.214 E0.76153
G1 X164.786 Y140.214 E1.15062
G1 X164.786 Y159.786 E0.76153
G1 X135.274 Y159.786 E1.14829
;WIPE_START
G1 X135.414 Y159.44 F9000
;WIPE_END
G1 X162.979 Y158.825
;TYPE:Solid infill
;WIDTH:0.473585
G1 F4574.1079
G1 X163.645 Y158.159 E0.04108
G1 X163.645 Y157.567 E0.02581
G1 X162.567 Y158.645 E0.06648
G1 X161.976 Y158.645 E0.02581
G1 X163.645 Y156.976 E0.10299
G1 X163.645 Y156.384 E0.02581
G1 X161.384 Y158.645 E0.13949
G1 X160.793 Y158.645 E0.02581
G1 X163.645 Y155.793 E0.176
G1 X163.645 Y155.201 E0.02581
G1 X160.201 Y158.645 E0.2125
G1 X159.609 Y158.645 E0.02581
G1 X163.645 Y154.609 E0.249
G1 X163.645 Y154.018 E0.02581
G1 X159.018 Y158.645 E0.28551
G1 X158.426 Y158.645 E0.02581
G1 X163.645 Y153.426 E0.32201
G1 X163.645 Y152.834 E0.02581
G1 X157.834 Y158.645 E0.35851
G1 X157.243 Y158.645 E0.02581
G1 X163.645 Y152.243 E0.39502
G1 X163.645 Y151.651 E0.02581
G1 X156.651 Y158.645 E0.43152
G1 X156.059 Y158.645 E0.02581
G1 X163.645 Y151.059 E0.46803
G1 X163.645 Y150.468 E0.02581
G1 X155.468 Y158.645 E0.50453
G1 X154.876 Y158.645 E0.02581
G1 X163.645 Y149.876 E0.54103
G1 X163.645 Y149.285 E0.02581
G1 X154.285 Y158.645 E0.57754
G1 X153.693 Y158.645 E0.02581
G1 X163.645 Y148.693 E0.61404
G1 X163.645 Y148.101 E0.02581
G1 X153.101 Y158.645 E0.65054
G1 X152.51 Y158.645 E0.02581
G1 X163.645 Y147.51 E0.68705
G1 X163.645 Y146.918 E0.02581
G1 X151.918 Y158.645 E0.72355
G1 X151.326 Y158.645 E0.02581
G1 X163.645 Y146.326 E0.76006
G1 X163.645 Y145.735 E0.02581
G1 X150.735 Y158.645 E0.79656
G1 X150.143 Y158.645 E0.02581
G1 X163.645 Y145.143 E0.83306
G1 X163.645 Y144.551 E0.02581
G1 X149.551 Y158.645 E0.86957
G1 X148.96 Y158.645 E0.02581
G1 X163.645 Y143.96 E0.90607
G1 X163.645 Y143.368 E0.02581
G1 X148.368 Y158.645 E0.94257
G1 X147.777 Y158.645 E0.02581
G1 X163.645 Y142.777 E0.97908
G1 X163.645 Y142.185 E0.02581
G1 X147.185 Y158.645 E1.01558
G1 X146.593 Y158.645 E0.02581
G1 X163.645 Y141.593 E1.05209
G1 X163.645 Y141.355 E0.0104
G1 X163.292 Y141.355 E0.01541
G1 X146.002 Y158.645 E1.06679
G1 X145.41 Y158.645 E0.02581
G1 X162.7 Y141.355 E1.06679
G1 X162.108 Y141.355 E0.02581
G1 X144.818 Y158.645 E1.06679
G1 X144.227 Y158.645 E0.02581
G1 X161.517 Y141.355 E1.06679
G1 X160.925 Y141.355 E0.02581
G1 X143.635 Y158.645 E1.06679
G1 X143.044 Y158.645 E0.02581
G1 X160.334 Y141.355 E1.06679
G1 X159.742 Y141.355 E0.02581
G1 X142.452 Y158.645 E1.06679
G1 X141.86 Y158.645 E0.02581
G1 X159.15 Y141.355 E1.06679
G1 X158.559 Y141.355 E0.02581
G1 X141.269 Y158.645 E1.06679
G1 X140.677 Y158.645 E0.02581
G1 X157.967 Y141.355 E1.06679
G1 X157.375 Y141.355 E0.02581
G1 X140.085 Y158.645 E1.06679
G1 X139.494 Y158.645 E0.02581
G1 X156.784 Y141.355 E1.06679
G1 X156.192 Y141.355 E0.02581
G1 X138.902 Y158.645 E1.06679
G1 X138.31 Y158.645 E0.02581
G1 X155.6 Y141.355 E1.06679
G1 X155.009 Y141.355 E0.02581
G1 X137.719 Y158.645 E1.06679
G1 X137.127 Y158.645 E0.02581
G1 X154.417 Y141.355 E1.06679
G1 X153.826 Y141.355 E0.02581
G1 X136.536 Y158.645 E1.06679
G1 X136.355 Y158.645 E0.00788
G1 X136.355 Y158.234 E0.01794
G1 X153.234 Y141.355 E1.04142
G1 X152.642 Y141.355 E0.02581
G1 X136.355 Y157.642 E1.00492
G1 X136.355 Y157.051 E0.02581
G1 X152.051 Y141.355 E0.96842
G1 X151.459 Y141.355 E0.02581
G1 X136.355 Y156.459 E0.93191
G1 X136.355 Y155.867 E0.02581
G1 X150.867 Y141.355 E0.89541
G1 X150.276 Y141.355 E0.02581
G1 X136.355 Y155.276 E0.85891
G1 X136.355 Y154.684 E0.02581
G1 X149.684 Y141.355 E0.8224
G1 X149.092 Y141.355 E0.02581
G1 X136.355 Y154.092 E0.7859
G1 X136.355 Y153.501 E0.02581
G1 X148.501 Y141.355 E0.74939
G1 X147.909 Y141.355 E0.02581
G1 X136.355 Y152.909 E0.71289
G1 X136.355 Y152.318 E0.02581
G1 X147.318 Y141.355 E0.67639
G1 X146.726 Y141.355 E0.02581
G1 X136.355 Y151.726 E0.63988
G1 X136.355 Y151.134 E0.02581
G1 X146.134 Y141.355 E0.60338
G1 X145.543 Y141.355 E0.02581
G1 X136.355 Y150.543 E0.56688
G1 X136.355 Y149.951 E0.02581
