; generated by SuperSlicer 2.3.57 on 2022-10-24 at 05:48:54 UTC


;
;

;
;
; TODO: check the size of the extruder and the y-bar clearance. Optimize & test supports.

; external perimeters extrusion width = 0.43mm
; perimeters extrusion width = 0.47mm
; infill extrusion width = 0.44mm
; solid infill extrusion width = 0.47mm
; top infill extrusion width = 0.45mm
; support material extrusion width = 0.44mm
; first layer extrusion width = 0.56mm

; object:{"name":"bracket","id":"bracket.stl id:0 copy 0","object_center":[150.000000,150.000000,0.000000],"boundingbox_center":[150.000000,150.000000,11.500000],"boundingbox_size":[22.000000,250.000000,23.000000]}
; plater:{"center":[150.000000,150.000000,0.000000],"boundingbox_center":[150.000000,150.000000,11.500000],"boundingbox_size":[22.000000,250.000000,23.000000]}

;TYPE:Custom
; M190 S0
; M109 S0 ; uncomment to remove set&wait temp gcode added automatically after this start gcode
; M98 P"/macros/print_start"
print_start EXTRUDER=230 BED=80 CHAMBER=30
M107
G21 ; set units to millimeters
G90 ; use absolute coordinates
M83 ; use relative distances for extrusion
M104 S230 ; set temperature
M109 S230 ; set temperature and wait for it to be reached
M190 S80 ; set bed temperature and wait for it to be reached
M107
;LAYER_CHANGE
;Z:0.2
;HEIGHT:0.2
;BEFORE_LAYER_CHANGE
;0.2


G1 Z0.2 F9000
;AFTER_LAYER_CHANGE
;0.2
G1 E-1 F2100
G1 Z0.6 F9000
M204 S1500
G1 X135.041 Y24.049
G1 Z0.2
G1 E1 F1500
;TYPE:Skirt
;WIDTH:0.52
G1 F1800
G1 X134.923 Y24.741 E0.02786
G1 X134.908 Y274.96 E9.92602
G1 X134.989 Y275.724 E0.03046
G1 X135.208 Y276.46 E0.03046
G1 X135.561 Y277.147 E0.03066
G1 X136.03 Y277.755 E0.03046
G1 X136.602 Y278.267 E0.03046
G1 X137.263 Y278.669 E0.03066
G1 X137.981 Y278.94 E0.03046
G1 X138.741 Y279.077 E0.03066
G1 X161.499 Y279.05 E0.9028
G1 X162.184 Y278.891 E0.02786
G1 X162.832 Y278.621 E0.02786
G1 X163.426 Y278.246 E0.02786
G1 X163.949 Y277.778 E0.02786
G1 X164.387 Y277.228 E0.02786
G1 X164.726 Y276.614 E0.02786
G1 X164.959 Y275.951 E0.02786
G1 X165.077 Y275.259 E0.02786
G1 X165.092 Y25.03 E9.92642
G1 X165 Y24.222 E0.03226
G1 X164.753 Y23.447 E0.03226
G1 X164.364 Y22.738 E0.03206
G1 X163.843 Y22.114 E0.03226
G1 X163.212 Y21.602 E0.03226
G1 X162.493 Y21.222 E0.03226
G1 X161.714 Y20.987 E0.03226
G1 X160.905 Y20.907 E0.03226
G1 X138.486 Y20.953 E0.88937
G1 X137.807 Y21.112 E0.02766
G1 X137.159 Y21.384 E0.02786
G1 X136.57 Y21.757 E0.02766
G1 X136.047 Y22.226 E0.02786
G1 X135.611 Y22.776 E0.02786
G1 X135.271 Y23.391 E0.02786
G1 X135.061 Y23.992 E0.02528
G1 E-1 F2100
G1 Z0.6 F9000
G1 X135.285 Y24.071
M204 S1000
G1 X135.509 Y24.151
G1 Z0.2
G1 E1 F1500
G1 F1800
G1 X135.398 Y24.781 E0.0254
G1 X135.385 Y274.95 E9.92404
G1 X135.457 Y275.631 E0.02716
G1 X135.651 Y276.283 E0.02698
G1 X135.964 Y276.892 E0.02716
G1 X136.379 Y277.431 E0.02698
G1 X136.89 Y277.887 E0.02716
G1 X137.471 Y278.24 E0.02698
G1 X138.112 Y278.482 E0.02716
G1 X138.781 Y278.602 E0.02698
G1 X161.382 Y278.584 E0.89657
G1 X161.996 Y278.45 E0.02491
G1 X162.578 Y278.215 E0.02491
G1 X163.116 Y277.882 E0.02509
G1 X163.587 Y277.467 E0.02491
G1 X163.98 Y276.978 E0.02491
G1 X164.286 Y276.429 E0.02491
G1 X164.495 Y275.837 E0.02491
G1 X164.602 Y275.219 E0.02491
G1 X164.615 Y25.045 E9.92423
G1 X164.534 Y24.327 E0.02867
G1 X164.318 Y23.642 E0.02848
G1 X163.971 Y23.008 E0.02867
G1 X163.511 Y22.457 E0.02848
G1 X162.954 Y22.004 E0.02848
G1 X162.316 Y21.665 E0.02867
G1 X161.624 Y21.456 E0.02867
G1 X160.905 Y21.384 E0.02867
G1 X138.608 Y21.417 E0.88449
G1 X137.995 Y21.552 E0.02491
G1 X137.418 Y21.787 E0.02472
G1 X136.884 Y22.118 E0.02491
G1 X136.413 Y22.533 E0.02491
G1 X136.02 Y23.022 E0.02491
G1 X135.714 Y23.571 E0.02491
G1 X135.529 Y24.094 E0.02202
G1 E-1 F2100
M204 S1500
G1 Z0.6 F9000
G1 X135.779 Y24.16
M204 S1000
G1 X136.03 Y24.226
G1 Z0.2
G1 E1 F1500
G1 F1800
G1 X135.874 Y24.82 E0.02438
G1 X135.862 Y274.936 E9.92194
G1 X135.923 Y275.528 E0.0236
G1 X136.093 Y276.103 E0.02378
G1 X136.364 Y276.633 E0.0236
G1 X136.727 Y277.104 E0.0236
G1 X137.17 Y277.501 E0.0236
G1 X137.679 Y277.81 E0.0236
G1 X138.235 Y278.021 E0.0236
G1 X138.82 Y278.126 E0.0236
G1 X161.274 Y278.117 E0.89071
G1 X162.33 Y277.806 E0.0437
G1 X163.222 Y277.158 E0.0437
G1 X163.844 Y276.249 E0.0437
G1 X164.126 Y275.18 E0.04388
G1 X164.138 Y25.059 E9.92212
G1 X164.07 Y24.437 E0.02483
G1 X163.881 Y23.835 E0.025
G1 X163.58 Y23.282 E0.025
G1 X163.177 Y22.797 E0.025
G1 X162.688 Y22.4 E0.025
G1 X162.135 Y22.106 E0.02483
G1 X161.532 Y21.924 E0.025
G1 X160.904 Y21.861 E0.025
G1 X138.722 Y21.884 E0.87996
G1 X137.666 Y22.196 E0.0437
G1 X136.775 Y22.845 E0.0437
G1 X136.154 Y23.755 E0.0437
G1 X136.045 Y24.168 E0.01694
; INIT printing object bracket.stl id:0 copy 0
G1 E-1 F2100
M204 S1500
G1 Z0.6 F9000
; printing object bracket.stl id:0 copy 0
G1 X139.252 Y30.163
M204 S1000
G1 X142.459 Y36.158
G1 Z0.2
G1 E1 F1500
;TYPE:Support material
;WIDTH:0.56
G1 F1800
G1 X157.541 Y36.158 E0.6485
G1 X157.541 Y46.186 E0.43116
G1 X142.459 Y46.186 E0.6485
G1 X142.459 Y36.218 E0.42858
M204 S1500
G1 X149.987 Y36.317 F9000
M204 S1000
G1 X157.516 Y36.416
G1 F1800
G1 X142.707 Y36.416 E0.63671
G1 X142.707 Y36.933 E0.02223
G1 X157.293 Y36.933 E0.62715
G1 X157.293 Y37.45 E0.02223
G1 X142.707 Y37.45 E0.62715
G1 X142.707 Y37.967 E0.02223
G1 X157.293 Y37.967 E0.62715
G1 X157.293 Y38.484 E0.02223
G1 X142.707 Y38.484 E0.62715
G1 X142.707 Y39.001 E0.02223
G1 X157.293 Y39.001 E0.62715
G1 X157.293 Y39.519 E0.02223
G1 X142.707 Y39.519 E0.62715
G1 X142.707 Y40.036 E0.02223
G1 X157.293 Y40.036 E0.62715
G1 X157.293 Y40.553 E0.02223
G1 X142.707 Y40.553 E0.62715
G1 X142.707 Y41.07 E0.02223
G1 X157.293 Y41.07 E0.62715
G1 X157.293 Y41.587 E0.02223
G1 X142.707 Y41.587 E0.62715
G1 X142.707 Y42.104 E0.02223
G1 X157.293 Y42.104 E0.62715
G1 X157.293 Y42.621 E0.02223
G1 X142.707 Y42.621 E0.62715
G1 X142.707 Y43.138 E0.02223
G1 X157.293 Y43.138 E0.62715
G1 X157.293 Y43.655 E0.02223
G1 X142.707 Y43.655 E0.62715
G1 X142.707 Y44.172 E0.02223
G1 X157.293 Y44.172 E0.62715
G1 X157.293 Y44.689 E0.02223
G1 X142.707 Y44.689 E0.62715
G1 X142.707 Y45.206 E0.02223
G1 X157.293 Y45.206 E0.62715
G1 X157.293 Y45.724 E0.02223
G1 X142.484 Y45.724 E0.63671
G1 E-1 F2100
M204 S1500
G1 Z0.6 F9000
G1 X141.644 Y39.913
M204 S1000
G1 X140.803 Y34.103
G1 Z0.2
G1 E1 F1500
;TYPE:Internal perimeter
G1 F1800
G1 X140.803 Y265.897 E9.96607
G1 X159.197 Y265.897 E0.79086
G1 X159.197 Y34.103 E9.96607
G1 X140.863 Y34.103 E0.78828
M204 S1500
G1 X141.091 Y34.361 F9000
M204 S1000
G1 X141.32 Y34.62
;TYPE:External perimeter
G1 F1800
G1 X141.32 Y265.38 E9.92161
G1 X158.68 Y265.38 E0.7464
G1 X158.68 Y34.62 E9.92161
G1 X141.38 Y34.62 E0.74382
;WIPE_START
M204 S1500
G1 X140.92 Y34.62 F9000
;WIPE_END
G1 X140.667 Y34.103
M204 S1000
G1 X140.414 Y33.586
;TYPE:Internal perimeter
G1 F1800
G1 X140.414 Y26.414 E0.30835
G1 X159.586 Y26.414 E0.82429
G1 X159.586 Y33.586 E0.30835
G1 X140.474 Y33.586 E0.82171
M204 S1500
G1 X140.474 Y150 F9000
M204 S1000
G1 X140.474 Y266.414
G1 F1800
G1 X159.586 Y266.414 E0.82171
G1 X159.586 Y273.586 E0.30835
G1 X140.414 Y273.586 E0.82429
G1 X140.414 Y266.414 E0.30835
M204 S1500
G1 X140.156 Y270.259 F9000
M204 S1000
G1 X139.897 Y274.103
G1 F1800
G1 X139.897 Y25.897 E10.6717
G1 X160.103 Y25.897 E0.86876
G1 X160.103 Y274.103 E10.6717
G1 X139.957 Y274.103 E0.86618
M204 S1500
G1 X139.669 Y274.361 F9000
M204 S1000
G1 X139.38 Y274.62
;TYPE:External perimeter
G1 F1800
G1 X139.38 Y25.38 E10.71616
G1 X160.62 Y25.38 E0.91322
G1 X160.62 Y274.62 E10.71616
G1 X139.44 Y274.62 E0.91064
;WIPE_START
M204 S1500
G1 X139.58 Y274.274 F9000
;WIPE_END
G1 X139.965 Y270.225
M204 S1000
G1 X140.35 Y266.176
;TYPE:Gap fill
;WIDTH:0.472003
G1 F1800
G1 X140.35 Y34.039 E8.28228
G1 X140.35 Y33.932 E0.00383
G1 X140.35 Y33.824 E0.00383
M204 S1500
G1 X150 Y33.824 F9000
M204 S1000
G1 X159.65 Y33.824
;WIDTH:0.472001
G1 F1800
G1 X159.65 Y150 E4.14495
G1 X159.65 Y265.961 E4.13729
G1 X159.65 Y266.068 E0.00383
G1 X159.65 Y266.176 E0.00383
M204 S1500
G1 X159.005 Y266.385 F9000
M204 S1000
G1 X158.36 Y266.595
;TYPE:Solid infill
;WIDTH:0.561268
G1 F1800
G1 X159.183 Y267.418 E0.05015
G1 X159.183 Y268.149 E0.03151
G1 X157.851 Y266.817 E0.08116
G1 X157.119 Y266.817 E0.03151
G1 X159.183 Y268.881 E0.12573
G1 X159.183 Y269.612 E0.03151
G1 X156.388 Y266.817 E0.17029
G1 X155.657 Y266.817 E0.03151
G1 X159.183 Y270.343 E0.21486
G1 X159.183 Y271.074 E0.03151
G1 X154.926 Y266.817 E0.25942
G1 X154.194 Y266.817 E0.03151
G1 X159.183 Y271.806 E0.30399
G1 X159.183 Y272.537 E0.03151
G1 X153.463 Y266.817 E0.34855
G1 X152.732 Y266.817 E0.03151
G1 X159.097 Y273.183 E0.3879
G1 X158.366 Y273.183 E0.03151
G1 X152.001 Y266.817 E0.3879
G1 X151.269 Y266.817 E0.03151
G1 X157.634 Y273.183 E0.3879
G1 X156.903 Y273.183 E0.03151
G1 X150.538 Y266.817 E0.3879
G1 X149.807 Y266.817 E0.03151
G1 X156.172 Y273.183 E0.3879
G1 X155.441 Y273.183 E0.03151
G1 X149.076 Y266.817 E0.3879
G1 X148.344 Y266.817 E0.03151
G1 X154.709 Y273.183 E0.3879
G1 X153.978 Y273.183 E0.03151
G1 X147.613 Y266.817 E0.3879
G1 X146.882 Y266.817 E0.03151
G1 X153.247 Y273.183 E0.3879
G1 X152.516 Y273.183 E0.03151
G1 X146.151 Y266.817 E0.3879
G1 X145.419 Y266.817 E0.03151
G1 X151.784 Y273.183 E0.3879
G1 X151.053 Y273.183 E0.03151
G1 X144.688 Y266.817 E0.3879
G1 X143.957 Y266.817 E0.03151
G1 X150.322 Y273.183 E0.3879
G1 X149.591 Y273.183 E0.03151
G1 X143.226 Y266.817 E0.3879
G1 X142.494 Y266.817 E0.03151
G1 X148.859 Y273.183 E0.3879
G1 X148.128 Y273.183 E0.03151
G1 X141.763 Y266.817 E0.3879
G1 X141.032 Y266.817 E0.03151
G1 X147.397 Y273.183 E0.3879
G1 X146.666 Y273.183 E0.03151
G1 X140.817 Y267.334 E0.3564
G1 X140.817 Y268.066 E0.03151
G1 X145.934 Y273.183 E0.31183
G1 X145.203 Y273.183 E0.03151
G1 X140.817 Y268.797 E0.26727
G1 X140.817 Y269.528 E0.03151
G1 X144.472 Y273.183 E0.2227
G1 X143.741 Y273.183 E0.03151
G1 X140.817 Y270.259 E0.17814
G1 X140.817 Y270.991 E0.03151
G1 X143.009 Y273.183 E0.13358
G1 X142.278 Y273.183 E0.03151
G1 X140.817 Y271.722 E0.08901
G1 X140.817 Y272.453 E0.03151
G1 X141.769 Y273.405 E0.058
G1 E-1 F2100
M204 S1500
G1 Z0.6 F9000
G1 X150.064 Y150
M204 S1000
G1 X158.36 Y26.595
G1 Z0.2
G1 E1 F1500
G1 F1800
G1 X159.183 Y27.418 E0.05015
G1 X159.183 Y28.149 E0.03151
G1 X157.851 Y26.817 E0.08116
G1 X157.119 Y26.817 E0.03151
G1 X159.183 Y28.881 E0.12573
G1 X159.183 Y29.612 E0.03151
G1 X156.388 Y26.817 E0.17029
G1 X155.657 Y26.817 E0.03151
G1 X159.183 Y30.343 E0.21486
G1 X159.183 Y31.074 E0.03151
G1 X154.926 Y26.817 E0.25942
G1 X154.194 Y26.817 E0.03151
G1 X159.183 Y31.806 E0.30399
G1 X159.183 Y32.537 E0.03151
G1 X153.463 Y26.817 E0.34855
G1 X152.732 Y26.817 E0.03151
G1 X159.097 Y33.183 E0.3879
G1 X158.366 Y33.183 E0.03151
G1 X152.001 Y26.817 E0.3879
G1 X151.269 Y26.817 E0.03151
G1 X157.634 Y33.183 E0.3879
G1 X156.903 Y33.183 E0.03151
G1 X150.538 Y26.817 E0.3879
G1 X149.807 Y26.817 E0.03151
G1 X156.172 Y33.183 E0.3879
G1 X155.441 Y33.183 E0.03151
G1 X149.076 Y26.817 E0.3879
G1 X148.344 Y26.817 E0.03151
G1 X154.709 Y33.183 E0.3879
G1 X153.978 Y33.183 E0.03151
G1 X147.613 Y26.817 E0.3879
G1 X146.882 Y26.817 E0.03151
G1 X153.247 Y33.183 E0.3879
G1 X152.516 Y33.183 E0.03151
G1 X146.151 Y26.817 E0.3879
G1 X145.419 Y26.817 E0.03151
G1 X151.784 Y33.183 E0.3879
G1 X151.053 Y33.183 E0.03151
G1 X144.688 Y26.817 E0.3879
G1 X143.957 Y26.817 E0.03151
G1 X150.322 Y33.183 E0.3879
G1 X149.591 Y33.183 E0.03151
G1 X143.226 Y26.817 E0.3879
G1 X142.494 Y26.817 E0.03151
G1 X148.859 Y33.183 E0.3879
G1 X148.128 Y33.183 E0.03151
G1 X141.763 Y26.817 E0.3879
G1 X141.032 Y26.817 E0.03151
G1 X147.397 Y33.183 E0.3879
G1 X146.666 Y33.183 E0.03151
G1 X140.817 Y27.334 E0.3564
G1 X140.817 Y28.066 E0.03151
G1 X145.934 Y33.183 E0.31183
G1 X145.203 Y33.183 E0.03151
G1 X140.817 Y28.797 E0.26727
G1 X140.817 Y29.528 E0.03151
G1 X144.472 Y33.183 E0.2227
G1 X143.741 Y33.183 E0.03151
G1 X140.817 Y30.259 E0.17814
G1 X140.817 Y30.991 E0.03151
G1 X143.009 Y33.183 E0.13358
G1 X142.278 Y33.183 E0.03151
G1 X140.817 Y31.722 E0.08901
G1 X140.817 Y32.453 E0.03151
G1 X141.769 Y33.405 E0.058
; INIT stop printing object bracket.stl id:0 copy 0
;LAYER_CHANGE
;Z:0.45
;HEIGHT:0.25
;BEFORE_LAYER_CHANGE
;0.45


; stop printing object bracket.stl id:0 copy 0
M204 S1500
G1 Z0.45 F9000
;AFTER_LAYER_CHANGE
;0.45
M104 S220 ; set temperature
; INIT printing object bracket.stl id:0 copy 0
; printing object bracket.stl id:0 copy 0
G1 X140.671 Y33.971
;TYPE:Internal perimeter
;WIDTH:0.472
G1 F4589.4637
G1 X140.671 Y266.029 E10.09041
G1 X159.329 Y266.029 E0.81127
G1 X159.329 Y33.971 E10.09041
G1 X140.731 Y33.971 E0.80866
G1 X141.09 Y34.39 F9000
G1 F4589.4637
G1 X141.09 Y265.61 E10.05403
G1 X158.91 Y265.61 E0.77489
G1 X158.91 Y34.39 E10.05403
G1 X141.15 Y34.39 E0.77228
G1 X141.486 Y34.786 F9000
;TYPE:External perimeter
;WIDTH:0.428
G1 F2400
G1 X141.486 Y265.214 E8.96575
G1 X158.514 Y265.214 E0.66254
G1 X158.514 Y34.786 E8.96575
G1 X141.546 Y34.786 E0.66021
;WIPE_START
G1 X141.086 Y34.786 F9000
;WIPE_END
G1 X140.029 Y26.029
;TYPE:Internal perimeter
;WIDTH:0.472
G1 F4589.4637
G1 X159.971 Y26.029 E0.86715
G1 X159.971 Y273.971 E10.78113
G1 X140.029 Y273.971 E0.86715
G1 X140.029 Y26.089 E10.77853
G1 X139.61 Y25.61 F9000
G1 F4589.4637
G1 X160.39 Y25.61 E0.90353
G1 X160.39 Y274.39 E10.81752
G1 X139.61 Y274.39 E0.90353
G1 X139.61 Y25.67 E10.81491
G1 X139.214 Y25.214 F9000
;TYPE:External perimeter
;WIDTH:0.428
G1 F2400
G1 X160.786 Y25.214 E0.83935
G1 X160.786 Y274.786 E9.71063
G1 X139.214 Y274.786 E0.83935
G1 X139.214 Y25.274 E9.70829
;WIPE_START
G1 X139.56 Y25.414 F9000
;WIPE_END
G1 X158.979 Y33.825
;TYPE:Solid infill
;WIDTH:0.475743
G1 F4553.3523
G1 X159.645 Y33.159 E0.04127
G1 X159.645 Y32.567 E0.02593
G1 X158.567 Y33.645 E0.06679
G1 X157.976 Y33.645 E0.02593
G1 X159.645 Y31.976 E0.10346
G1 X159.645 Y31.384 E0.02593
G1 X157.384 Y33.645 E0.14013
G1 X156.793 Y33.645 E0.02593
G1 X159.645 Y30.793 E0.1768
G1 X159.645 Y30.201 E0.02593
G1 X156.201 Y33.645 E0.21347
G1 X155.609 Y33.645 E0.02593
G1 X159.645 Y29.609 E0.25014
G1 X159.645 Y29.018 E0.02593
G1 X155.018 Y33.645 E0.28681
G1 X154.426 Y33.645 E0.02593
G1 X159.645 Y28.426 E0.32348
G1 X159.645 Y27.834 E0.02593
G1 X153.834 Y33.645 E0.36015
G1 X153.243 Y33.645 E0.02593
G1 X159.645 Y27.243 E0.39682
G1 X159.645 Y26.651 E0.02593
G1 X152.651 Y33.645 E0.43349
G1 X152.059 Y33.645 E0.02593
G1 X159.349 Y26.355 E0.45184
G1 X158.758 Y26.355 E0.02593
G1 X151.468 Y33.645 E0.45184
G1 X150.876 Y33.645 E0.02593
G1 X158.166 Y26.355 E0.45184
G1 X157.575 Y26.355 E0.02593
G1 X150.285 Y33.645 E0.45184
G1 X149.693 Y33.645 E0.02593
G1 X156.983 Y26.355 E0.45184
G1 X156.391 Y26.355 E0.02593
G1 X149.101 Y33.645 E0.45184
G1 X148.51 Y33.645 E0.02593
G1 X155.8 Y26.355 E0.45184
G1 X155.208 Y26.355 E0.02593
G1 X147.918 Y33.645 E0.45184
G1 X147.326 Y33.645 E0.02593
G1 X154.616 Y26.355 E0.45184
G1 X154.025 Y26.355 E0.02593
G1 X146.735 Y33.645 E0.45184
G1 X146.143 Y33.645 E0.02593
G1 X153.433 Y26.355 E0.45184
G1 X152.841 Y26.355 E0.02593
G1 X145.551 Y33.645 E0.45184
G1 X144.96 Y33.645 E0.02593
G1 X152.25 Y26.355 E0.45184
G1 X151.658 Y26.355 E0.02593
G1 X144.368 Y33.645 E0.45184
G1 X143.777 Y33.645 E0.02593
G1 X151.067 Y26.355 E0.45184
G1 X150.475 Y26.355 E0.02593
G1 X143.185 Y33.645 E0.45184
G1 X142.593 Y33.645 E0.02593
G1 X149.883 Y26.355 E0.45184
G1 X149.292 Y26.355 E0.02593
G1 X142.002 Y33.645 E0.45184
G1 X141.41 Y33.645 E0.02593
G1 X148.7 Y26.355 E0.45184
G1 X148.108 Y26.355 E0.02593
G1 X140.818 Y33.645 E0.45184
G1 X140.355 Y33.645 E0.02031
G1 X140.355 Y33.517 E0.00562
G1 X147.517 Y26.355 E0.44389
G1 X146.925 Y26.355 E0.02593
G1 X140.355 Y32.925 E0.40722
G1 X140.355 Y32.333 E0.02593
G1 X146.334 Y26.355 E0.37055
G1 X145.742 Y26.355 E0.02593
G1 X140.355 Y31.742 E0.33388
G1 X140.355 Y31.15 E0.02593
G1 X145.15 Y26.355 E0.29721
G1 X144.559 Y26.355 E0.02593
G1 X140.355 Y30.559 E0.26054
G1 X140.355 Y29.967 E0.02593
G1 X143.967 Y26.355 E0.22387
G1 X143.375 Y26.355 E0.02593
G1 X140.355 Y29.375 E0.1872
G1 X140.355 Y28.784 E0.02593
G1 X142.784 Y26.355 E0.15053
G1 X142.192 Y26.355 E0.02593
G1 X140.355 Y28.192 E0.11386
G1 X140.355 Y27.6 E0.02593
G1 X141.6 Y26.355 E0.07719
G1 X141.009 Y26.355 E0.02593
